X:1
T:Title
%%score { ( 1 4 ) | ( 2 3 ) }
L:1/8
Q:1/4=120
M:3/4
K:Eb
V:1 treble nm="Church Organ"
V:4 treble 
V:2 bass 
V:3 bass 
V:1
 B4 G2 | [FB]4 G2 | e2 d2 [Ec]2 | B4 G2 | E4 E2 | [B,DF]4 [B,EG]2 | B2 z2 z2 | [B,DF]6 | %8
w: DEVICE=GENERAL.MDV *||||||||
 [B,EB]4 [B,EG]2 | [B,FB]4 G2 | e2 d2 [Ec]2 | B4 F2 | E4 E2 | E2- [B,EG]2 [A,EA]2 | %14
w: ||||||
 [B,EG]4 [A,DF]2 | [G,E]6 |] %16
w: ||
V:2
 [E,G,E]4 [E,B,E]2 | [D,B,]4 [E,B,E]2 | C2 B,2 [A,,A,]2 | [E,G,E]4 [E,B,E]2 | [E,G,B,]4 [C,G,C]2 | %5
 B,,4 E,2 | z2 A2 E,2 | B,,6 | G,4 E,2 | D,4 [E,B,E]2 | C2 B,2 [A,,A,]2 | [E,G,E]4 [E,B,]2 | %12
 [C,G,C]4 E,2 | A,,2 G,,2 F,,2 | B,,4 B,,2 | E,6 |] %16
V:3
 x6 | x6 | [A,,E]4 z2 | x6 | x6 | x6 | D,4 z2 | x6 | x6 | x6 | [A,,E]4 z2 | x6 | x6 | x6 | x6 | %15
 x6 |] %16
V:4
 x6 | x6 | x6 | x6 | x6 | x6 | [B,F]4 [B,EG]2 | x6 | x6 | x6 | x6 | x6 | x6 | [CF]2 z2 z2 | x6 | %15
 x6 |] %16

